svgs/thin/heading.svg

<svg xmlns="http://www.w3.org/2000/svg" viewBox="0 0 448 512"><!-- Font Awesome Pro 6.0.0-alpha2 by @fontawesome - https://fontawesome.com License - https://fontawesome.com/license (Commercial License) --><path d="M448 472C448 476.422 444.406 480 440 480H328C323.594 480 320 476.422 320 472S323.594 464 328 464H376V264H72V464H120C124.406 464 128 467.578 128 472S124.406 480 120 480H8C3.594 480 0 476.422 0 472S3.594 464 8 464H56V48H8C3.594 48 0 44.422 0 40S3.594 32 8 32H120C124.406 32 128 35.578 128 40S124.406 48 120 48H72V248H376V48H328C323.594 48 320 44.422 320 40S323.594 32 328 32H440C444.406 32 448 35.578 448 40S444.406 48 440 48H392V464H440C444.406 464 448 467.578 448 472Z"/></svg>

<svg xmlns="http://www.w3.org/2000/svg" viewBox="0 0 448 512"><!--! Font Awesome Pro 6.0.0-alpha3 by @fontawesome - https://fontawesome.com License - https://fontawesome.com/license (Commercial License) --><path d="M448 472c0 4.422-3.594 8-8 8h-112C323.6 480 320 476.4 320 472s3.594-8 8-8h48V264h-304v200h48C124.4 464 128 467.6 128 472S124.4 480 120 480h-112C3.594 480 0 476.4 0 472s3.594-8 8-8h48v-416h-48C3.594 48 0 44.42 0 40S3.594 32 8 32h112C124.4 32 128 35.58 128 40S124.4 48 120 48h-48v200h304V48h-48C323.6 48 320 44.42 320 40S323.6 32 328 32h112C444.4 32 448 35.58 448 40S444.4 48 440 48h-48v416h48C444.4 464 448 467.6 448 472z"/></svg>
